icons/svg/seamark/wreck_hull_showing.svg

<?xml version="1.0" encoding="UTF-8" standalone="no"?>
<svg
   xmlns:dc="http://purl.org/dc/elements/1.1/"
   xmlns:cc="http://creativecommons.org/ns#"
   xmlns:rdf="http://www.w3.org/1999/02/22-rdf-syntax-ns#"
   xmlns:svg="http://www.w3.org/2000/svg"
   xmlns="http://www.w3.org/2000/svg"
   xmlns:sodipodi="http://sodipodi.sourceforge.net/DTD/sodipodi-0.dtd"
   xmlns:inkscape="http://www.inkscape.org/namespaces/inkscape"
   width="580"
   height="580"
   id="svg2"
   version="1.1"
   inkscape:version="0.48.4 r9939"
   sodipodi:docname="wreck_hull_showing.svg">
  <defs
     id="defs13">
    <inkscape:path-effect
       effect="gears"
       id="path-effect3774"
       is_visible="true"
       teeth="6"
       phi="-1.2" />
    <inkscape:path-effect
       effect="bend_path"
       id="path-effect3772"
       is_visible="false"
       bendpath="m 95.790098,316.51174 c 144.429032,-206.42506 223.313032,-11.7428 339.548092,0"
       prop_scale="1.19"
       scale_y_rel="false"
       vertical="false"
       bendpath-nodetypes="cc" />
  </defs>
  <sodipodi:namedview
     pagecolor="#ffffff"
     bordercolor="#666666"
     borderopacity="1"
     objecttolerance="10"
     gridtolerance="10"
     guidetolerance="10"
     inkscape:pageopacity="0"
     inkscape:pageshadow="2"
     inkscape:window-width="1324"
     inkscape:window-height="739"
     id="namedview11"
     showgrid="false"
     inkscape:zoom="0.8137931"
     inkscape:cx="191.03073"
     inkscape:cy="207.0359"
     inkscape:window-x="42"
     inkscape:window-y="1024"
     inkscape:window-maximized="1"
     inkscape:current-layer="svg2" />
  <metadata
     id="metadata2975">image/svg+xmlen<rdf:RDF>
  <cc:Work
     rdf:about="">
    <dc:format>image/svg+xml</dc:format>
    <dc:type
       rdf:resource="http://purl.org/dc/dcmitype/StillImage" />
    <dc:title />
  </cc:Work>
</rdf:RDF>
</metadata>
  <path
     style="opacity:0.372;color:#000000;fill:#e4e4e4;fill-opacity:1;fill-rule:nonzero;stroke:#a35151;stroke-width:0;stroke-linecap:round;stroke-linejoin:miter;stroke-miterlimit:4;stroke-opacity:1;stroke-dashoffset:0;marker:none;visibility:visible;display:inline;overflow:visible;enable-background:accumulate"
     d="m 442.75,189.6875 c -2.68688,1.0976 -17.57549,4.83819 -20.15625,5.0625 -1.49125,1.74762 -12.93957,11.03785 -15.875,12.9375 l -0.3125,-0.25 -0.3125,0.40625 0.1875,0.15625 c -0.37911,0.21763 -0.45729,0.18331 -0.1875,-0.15625 l -135.875,166.0625 -197.125,-86.5 c -6.225887,-2.72845 -13.223989,-3.66762 -19.948957,-2.67722 -6.724969,0.9904 -13.1552,3.90718 -18.330169,8.31464 -5.17497,4.40747 -9.078054,10.29147 -11.126225,16.77306 -2.048171,6.4816 -2.234849,13.53997 -0.532149,20.12077 0,0 21.542603,83.05451 35.71875,137.71875 l -4.90625,0 c -9.54785,-0.001 -19.0374,3.92865 -25.78875,10.68 -6.75135,6.75135 -10.681296,16.2409 -10.68,25.78875 l 0,25 c -0.0013,9.54785 3.92865,19.0374 10.68,25.78875 6.75135,6.75135 16.2409,10.6813 25.78875,10.68 l 166.71875,0 c 14.76664,18.94185 37.58723,31.21875 63.21875,31.21875 25.6289,0 48.46183,-12.28277 63.21875,-31.21875 l 166.65625,0 c 9.54785,0.001 19.0374,-3.92865 25.78875,-10.68 6.75135,-6.75135 10.6813,-16.2409 10.68,-25.78875 l 0,-25 c 0.001,-9.54785 -3.92865,-19.0374 -10.68,-25.78875 -6.75135,-6.75135 -16.2409,-10.6813 -25.78875,-10.68 l -29.90625,0 -120.5625,-52.90625 118.5,-144.84375 c -0.37094,0.43912 -0.46104,0.29065 -0.34375,-0.28125 l 0.34375,0.28125 0.375,-0.4375 -0.53125,-0.4375 c 1.16755,-4.30192 8.91267,-21.83916 10.90625,-24.625 -0.002,-0.005 0.002,-0.0257 0,-0.0312 -1.28295,-3.31311 -4.63994,-23.69476 -4.46875,-27.1875 -2.8946,-2.09868 -16.77431,-17.35453 -18.53125,-20.375 -3.49914,-0.15982 -23.53034,-5.41942 -26.65625,-7 -0.10168,-0.0514 -0.0915,-0.0817 -0.15625,-0.125 z"
     id="path3933"
     inkscape:connector-curvature="0"
     sodipodi:nodetypes="cccccccccssscccsccsccsccsccsccccccccccccccc" />
  <path
     style="fill:#000000;stroke:#000000;stroke-width:1px;stroke-linecap:butt;stroke-linejoin:miter;stroke-opacity:1;fill-opacity:1"
     d="M 108.13559,514.87288 C 106.90678,509.95763 57.754237,320.72034 57.754237,320.72034 L 489.0678,509.95763 109.36441,521.01695 z"
     id="path3085"
     inkscape:connector-curvature="0" />
  <path
     style="fill:none;stroke:#000000;stroke-width:25;stroke-linecap:butt;stroke-linejoin:miter;stroke-miterlimit:4;stroke-opacity:1;stroke-dasharray:none"
     d="m 53.289216,516.57012 459.816464,0"
     id="path3759"
     inkscape:connector-curvature="0"
     sodipodi:nodetypes="cc" />
  <path
     sodipodi:type="arc"
     style="color:#000000;fill:#fefefe;fill-opacity:1;stroke:#000000;stroke-width:25;stroke-linecap:round;stroke-linejoin:round;stroke-miterlimit:10;stroke-opacity:1;stroke-dasharray:none;stroke-dashoffset:0;marker:none;visibility:visible;display:inline;overflow:visible;enable-background:accumulate"
     id="path3759-1"
     sodipodi:cx="210.27438"
     sodipodi:cy="76.036606"
     sodipodi:rx="40.838413"
     sodipodi:ry="40.838413"
     d="m 251.1128,76.036606 a 40.838413,40.838413 0 1 1 -81.67683,0 40.838413,40.838413 0 1 1 81.67683,0 z"
     transform="matrix(0.82289092,0,0,0.82289092,110.16458,453.8318)" />
  <path
     style="fill:none;stroke:#000000;stroke-width:25;stroke-linecap:round;stroke-linejoin:miter;stroke-opacity:1;color:#000000;stroke-miterlimit:4;stroke-dasharray:none;stroke-dashoffset:0;marker:none;visibility:visible;display:inline;overflow:visible;enable-background:accumulate"
     d="M 277.71186,441.14407 443.6017,238.38983"
     id="path3855"
     inkscape:connector-curvature="0" />
</svg>

<svg width="580" height="580" viewBox="0 0 580 580" fill="none" xmlns="http://www.w3.org/2000/svg">
<g clip-path="url(#clip0)">
<path opacity="0.372" d="M442.75 189.688C440.063 190.785 425.175 194.526 422.594 194.75C421.102 196.498 409.654 205.788 406.719 207.688L406.406 207.438L406.094 207.844L406.281 208C405.902 208.218 405.824 208.183 406.094 207.844L270.219 373.906L73.0938 287.406C66.8679 284.678 59.8698 283.739 53.1448 284.729C46.4198 285.719 39.9896 288.636 34.8146 293.044C29.6397 297.451 25.7366 303.335 23.6884 309.817C21.6402 316.298 21.4536 323.357 23.1563 329.938C23.1563 329.938 44.6989 412.992 58.875 467.656H53.9688C44.4209 467.655 34.9314 471.585 28.18 478.336C21.4287 485.088 17.4987 494.577 17.5 504.125V529.125C17.4987 538.673 21.4287 548.162 28.18 554.914C34.9314 561.665 44.4209 565.595 53.9688 565.594H220.688C235.454 584.536 258.275 596.812 283.906 596.812C309.535 596.812 332.368 584.53 347.125 565.594H513.781C523.329 565.595 532.819 561.665 539.57 554.914C546.321 548.162 550.251 538.673 550.25 529.125V504.125C550.251 494.577 546.321 485.088 539.57 478.336C532.819 471.585 523.329 467.655 513.781 467.656H483.875L363.312 414.75L481.812 269.906C481.442 270.345 481.351 270.197 481.469 269.625L481.812 269.906L482.188 269.469L481.656 269.031C482.824 264.729 490.569 247.192 492.562 244.406C492.56 244.401 492.565 244.381 492.562 244.375C491.28 241.062 487.923 220.68 488.094 217.188C485.199 215.089 471.319 199.833 469.562 196.813C466.063 196.653 446.032 191.393 442.906 189.813C442.805 189.761 442.815 189.731 442.75 189.688V189.688Z" fill="#E4E4E4"/>
<path d="M108.136 514.873C106.907 509.958 57.7542 320.721 57.7542 320.721L489.068 509.958L109.364 521.017L108.136 514.873Z" fill="black" stroke="black"/>
<path d="M53.2893 516.57H513.106" stroke="black" stroke-width="25"/>
<path d="M316.803 516.402C316.803 525.315 313.262 533.863 306.96 540.165C300.658 546.467 292.11 550.008 283.197 550.008C274.285 550.008 265.737 546.467 259.435 540.165C253.132 533.863 249.592 525.315 249.592 516.402C249.592 507.49 253.132 498.942 259.435 492.64C265.737 486.337 274.285 482.797 283.197 482.797C292.11 482.797 300.658 486.337 306.96 492.64C313.262 498.942 316.803 507.49 316.803 516.402V516.402Z" fill="#FEFEFE" stroke="black" stroke-width="20.5723" stroke-miterlimit="10" stroke-linecap="round" stroke-linejoin="round"/>
<path d="M277.712 441.145L443.602 238.391" stroke="black" stroke-width="25" stroke-linecap="round"/>
</g>
<defs>
<clipPath id="clip0">
<path d="M0 0H580V580H0V0Z" fill="white"/>
</clipPath>
</defs>
</svg>
